modules/fontelico/icons/marquee.svg

<svg xmlns="http://www.w3.org/2000/svg" width="1000" height="1000"><path d="M0 0l0 142.844l142.844 0l0 -142.844l-142.844 0zm285.719 0l0 142.844l142.844 0l0 -142.844l-142.844 0zm285.719 0l0 142.844l142.844 0l0 -142.844l-142.844 0zm285.719 0l0 142.844l142.844 0l0 -142.844l-142.844 0zm-857.156 285.719l0 142.844l142.844 0l0 -142.844l-142.844 0zm857.156 0l0 142.844l142.844 0l0 -142.844l-142.844 0zm-857.156 285.719l0 142.844l142.844 0l0 -142.844l-142.844 0zm857.156 0l0 142.844l142.844 0l0 -142.844l-142.844 0zm-857.156 285.719l0 142.844l142.844 0l0 -142.844l-142.844 0zm285.719 0l0 142.844l142.844 0l0 -142.844l-142.844 0zm285.719 0l0 142.844l142.844 0l0 -142.844l-142.844 0zm285.719 0l0 142.844l142.844 0l0 -142.844l-142.844 0z"/></svg>

<svg xmlns="http://www.w3.org/2000/svg" width="1000" height="1000"><path d="M0 0v142.844h142.844V0H0zm285.719 0v142.844h142.844V0H285.719zm285.719 0v142.844h142.844V0H571.438zm285.719 0v142.844h142.844V0H857.157zM.001 285.719v142.844h142.844V285.719H.001zm857.156 0v142.844h142.844V285.719H857.157zM.001 571.438v142.844h142.844V571.438H.001zm857.156 0v142.844h142.844V571.438H857.157zM.001 857.157v142.844h142.844V857.157H.001zm285.719 0v142.844h142.844V857.157H285.72zm285.719 0v142.844h142.844V857.157H571.439zm285.719 0v142.844h142.844V857.157H857.158z"/></svg>
